X:580
T: SCHOEN IST DIE JUGEND
N: E0543
O: Europa, Mitteleuropa, Deutschland, Hessen, Lahngegend; Odenwald
R: Liebes - Lied
M: 3/4
L: 1/16
K: Bb
F2D2E2 | F2d2d2c2B2G2 | F4D2
F2G2F2 | F2c2c2e2d2c2 | B4z2
F2G2F2 | c3cc2e2d2c2 | d3ff2
B2B2B2 | G2e2d2c2d4c4 | B4z2
F2G2F2 | c3cc2e2d2c2 | d3ff2
B2B2B2 | G2e2d2c2d4c4 | B4z2

